(1001)
(T1  D=6. CR=0. - ZMIN=-16. - FLAT END MILL)
G90 G94 G91.1 G40 G49 G17
G21

(2D CONTOUR2)
M5
T1 M6
S15000 M3
G54
M8
G0 X76.491 Y47.124
G43 Z15. H1
Z5.
G1 Z4. F267.
Z-2.4
X76.498 Z-2.494 F800.
X76.52 Y47.125 Z-2.585
X76.556 Y47.126 Z-2.672
X76.606 Y47.127 Z-2.753
X76.667 Y47.128 Z-2.824
X76.738 Y47.13 Z-2.885
X76.819 Y47.133 Z-2.935
X76.906 Y47.135 Z-2.971
X76.997 Y47.137 Z-2.993
X77.091 Y47.14 Z-3.
X77.691 Y47.156
G3 X78.274 Y47.772 I-0.016 J0.6
G1 X78.184 Y51.153
X78.118 Y53.046
X78.033 Y54.929
X77.924 Y56.799
X77.785 Y58.662
X77.703 Y59.577
X77.61 Y60.495
X77.508 Y61.409
X77.394 Y62.319
X77.268 Y63.225
X77.13 Y64.13
X76.98 Y65.037
X76.819 Y65.936
X76.463 Y67.764
X76.072 Y69.589
X75.651 Y71.422
X75.207 Y73.259
X74.304 Y76.858
X73.91 Y78.022
X73.477 Y79.268
X73.03 Y80.485
X72.806 Y81.063
X72.574 Y81.637
X72.335 Y82.196
X72.09 Y82.74
X71.838 Y83.269
X71.577 Y83.781
X71.308 Y84.277
X71.029 Y84.754
X70.74 Y85.213
X70.441 Y85.653
X70.131 Y86.075
X69.808 Y86.478
X69.467 Y86.869
X69.104 Y87.252
X68.719 Y87.631
X68.311 Y88.006
X67.883 Y88.377
X67.434 Y88.744
X66.966 Y89.11
X66.489 Y89.466
X65.459 Y90.199
X64.388 Y90.923
X63.637 Y91.42
X63.388 Y91.496
X62.775 Y91.674
X62.207 Y91.817
X61.655 Y91.926
X61.077 Y92.011
X60.466 Y92.078
X59.107 Y92.186
X57.514 Y92.284
X55.926 Y92.364
X55.52 Y92.376
Y8.895
X57.086 Y8.922
X58.152 Y8.959
X59.203 Y9.017
X60.249 Y9.102
X61.303 Y9.213
X63.358 Y9.469
X64.167 Y9.653
X65.068 Y9.88
X65.464 Y9.993
X65.852 Y10.115
X66.216 Y10.245
X66.561 Y10.384
X66.901 Y10.538
X67.25 Y10.713
X67.608 Y10.909
X67.967 Y11.118
X68.757 Y11.611
X69.159 Y11.875
X70.043 Y13.015
X70.589 Y13.749
X71.103 Y14.479
X71.585 Y15.214
X71.797 Y15.56
X72.005 Y15.918
X72.203 Y16.28
X72.394 Y16.65
X72.578 Y17.027
X72.75 Y17.399
X73.095 Y18.206
X73.412 Y19.028
X73.711 Y19.877
X73.995 Y20.751
X74.267 Y21.648
X74.53 Y22.563
X75.042 Y24.429
X75.757 Y27.305
X76.102 Y28.742
X76.431 Y30.173
X76.738 Y31.597
X77.019 Y33.014
X77.27 Y34.426
X77.486 Y35.834
X77.667 Y37.247
X77.815 Y38.674
X77.936 Y40.114
X78.034 Y41.568
X78.114 Y43.035
X78.179 Y44.511
X78.284 Y47.414
X78.274 Y47.772
G3 X77.659 Y48.355 I-0.6 J-0.016
G1 X77.059 Y48.339
X76.965 Y48.337 Z-2.993
X76.873 Y48.334 Z-2.971
X76.786 Y48.332 Z-2.935
X76.706 Y48.33 Z-2.885
X76.635 Y48.328 Z-2.824
X76.574 Y48.326 Z-2.753
X76.524 Y48.325 Z-2.672
X76.488 Y48.324 Z-2.585
X76.466 Z-2.494
X76.459 Y48.323 Z-2.4
G0 Z5.
X76.491 Y47.124
G1 Z1. F267.
Z-5.4
X76.498 Z-5.494 F800.
X76.52 Y47.125 Z-5.585
X76.556 Y47.126 Z-5.672
X76.606 Y47.127 Z-5.753
X76.667 Y47.128 Z-5.824
X76.738 Y47.13 Z-5.885
X76.819 Y47.133 Z-5.935
X76.906 Y47.135 Z-5.971
X76.997 Y47.137 Z-5.993
X77.091 Y47.14 Z-6.
X77.691 Y47.156
G3 X78.274 Y47.772 I-0.016 J0.6
G1 X78.184 Y51.153
X78.118 Y53.046
X78.033 Y54.929
X77.924 Y56.799
X77.785 Y58.662
X77.703 Y59.577
X77.61 Y60.495
X77.508 Y61.409
X77.394 Y62.319
X77.268 Y63.225
X77.13 Y64.13
X76.98 Y65.037
X76.819 Y65.936
X76.463 Y67.764
X76.072 Y69.589
X75.651 Y71.422
X75.207 Y73.259
X74.304 Y76.858
X73.91 Y78.022
X73.477 Y79.268
X73.03 Y80.485
X72.806 Y81.063
X72.574 Y81.637
X72.335 Y82.196
X72.09 Y82.74
X71.838 Y83.269
X71.577 Y83.781
X71.308 Y84.277
X71.029 Y84.754
X70.74 Y85.213
X70.441 Y85.653
X70.131 Y86.075
X69.808 Y86.478
X69.467 Y86.869
X69.104 Y87.252
X68.719 Y87.631
X68.311 Y88.006
X67.883 Y88.377
X67.434 Y88.744
X66.966 Y89.11
X66.489 Y89.466
X65.459 Y90.199
X64.388 Y90.923
X63.637 Y91.42
X63.388 Y91.496
X62.775 Y91.674
X62.207 Y91.817
X61.655 Y91.926
X61.077 Y92.011
X60.466 Y92.078
X59.107 Y92.186
X57.514 Y92.284
X55.926 Y92.364
X55.52 Y92.376
Y8.895
X57.086 Y8.922
X58.152 Y8.959
X59.203 Y9.017
X60.249 Y9.102
X61.303 Y9.213
X63.358 Y9.469
X64.167 Y9.653
X65.068 Y9.88
X65.464 Y9.993
X65.852 Y10.115
X66.216 Y10.245
X66.561 Y10.384
X66.901 Y10.538
X67.25 Y10.713
X67.608 Y10.909
X67.967 Y11.118
X68.757 Y11.611
X69.159 Y11.875
X70.043 Y13.015
X70.589 Y13.749
X71.103 Y14.479
X71.585 Y15.214
X71.797 Y15.56
X72.005 Y15.918
X72.203 Y16.28
X72.394 Y16.65
X72.578 Y17.027
X72.75 Y17.399
X73.095 Y18.206
X73.412 Y19.028
X73.711 Y19.877
X73.995 Y20.751
X74.267 Y21.648
X74.53 Y22.563
X75.042 Y24.429
X75.757 Y27.305
X76.102 Y28.742
X76.431 Y30.173
X76.738 Y31.597
X77.019 Y33.014
X77.27 Y34.426
X77.486 Y35.834
X77.667 Y37.247
X77.815 Y38.674
X77.936 Y40.114
X78.034 Y41.568
X78.114 Y43.035
X78.179 Y44.511
X78.284 Y47.414
X78.274 Y47.772
G3 X77.659 Y48.355 I-0.6 J-0.016
G1 X77.059 Y48.339
X76.965 Y48.337 Z-5.993
X76.873 Y48.334 Z-5.971
X76.786 Y48.332 Z-5.935
X76.706 Y48.33 Z-5.885
X76.635 Y48.328 Z-5.824
X76.574 Y48.326 Z-5.753
X76.524 Y48.325 Z-5.672
X76.488 Y48.324 Z-5.585
X76.466 Z-5.494
X76.459 Y48.323 Z-5.4
G0 Z5.
X76.491 Y47.124
G1 Z-2. F267.
Z-8.4
X76.498 Z-8.494 F800.
X76.52 Y47.125 Z-8.585
X76.556 Y47.126 Z-8.672
X76.606 Y47.127 Z-8.753
X76.667 Y47.128 Z-8.824
X76.738 Y47.13 Z-8.885
X76.819 Y47.133 Z-8.935
X76.906 Y47.135 Z-8.971
X76.997 Y47.137 Z-8.993
X77.091 Y47.14 Z-9.
X77.691 Y47.156
G3 X78.274 Y47.772 I-0.016 J0.6
G1 X78.184 Y51.153
X78.118 Y53.046
X78.033 Y54.929
X77.924 Y56.799
X77.785 Y58.662
X77.703 Y59.577
X77.61 Y60.495
X77.508 Y61.409
X77.394 Y62.319
X77.268 Y63.225
X77.13 Y64.13
X76.98 Y65.037
X76.819 Y65.936
X76.463 Y67.764
X76.072 Y69.589
X75.651 Y71.422
X75.207 Y73.259
X74.304 Y76.858
X73.91 Y78.022
X73.477 Y79.268
X73.03 Y80.485
X72.806 Y81.063
X72.574 Y81.637
X72.335 Y82.196
X72.09 Y82.74
X71.838 Y83.269
X71.577 Y83.781
X71.308 Y84.277
X71.029 Y84.754
X70.74 Y85.213
X70.441 Y85.653
X70.131 Y86.075
X69.808 Y86.478
X69.467 Y86.869
X69.104 Y87.252
X68.719 Y87.631
X68.311 Y88.006
X67.883 Y88.377
X67.434 Y88.744
X66.966 Y89.11
X66.489 Y89.466
X65.459 Y90.199
X64.388 Y90.923
X63.637 Y91.42
X63.388 Y91.496
X62.775 Y91.674
X62.207 Y91.817
X61.655 Y91.926
X61.077 Y92.011
X60.466 Y92.078
X59.107 Y92.186
X57.514 Y92.284
X55.926 Y92.364
X55.52 Y92.376
Y8.895
X57.086 Y8.922
X58.152 Y8.959
X59.203 Y9.017
X60.249 Y9.102
X61.303 Y9.213
X63.358 Y9.469
X64.167 Y9.653
X65.068 Y9.88
X65.464 Y9.993
X65.852 Y10.115
X66.216 Y10.245
X66.561 Y10.384
X66.901 Y10.538
X67.25 Y10.713
X67.608 Y10.909
X67.967 Y11.118
X68.757 Y11.611
X69.159 Y11.875
X70.043 Y13.015
X70.589 Y13.749
X71.103 Y14.479
X71.585 Y15.214
X71.797 Y15.56
X72.005 Y15.918
X72.203 Y16.28
X72.394 Y16.65
X72.578 Y17.027
X72.75 Y17.399
X73.095 Y18.206
X73.412 Y19.028
X73.711 Y19.877
X73.995 Y20.751
X74.267 Y21.648
X74.53 Y22.563
X75.042 Y24.429
X75.757 Y27.305
X76.102 Y28.742
X76.431 Y30.173
X76.738 Y31.597
X77.019 Y33.014
X77.27 Y34.426
X77.486 Y35.834
X77.667 Y37.247
X77.815 Y38.674
X77.936 Y40.114
X78.034 Y41.568
X78.114 Y43.035
X78.179 Y44.511
X78.284 Y47.414
X78.274 Y47.772
G3 X77.659 Y48.355 I-0.6 J-0.016
G1 X77.059 Y48.339
X76.965 Y48.337 Z-8.993
X76.873 Y48.334 Z-8.971
X76.786 Y48.332 Z-8.935
X76.706 Y48.33 Z-8.885
X76.635 Y48.328 Z-8.824
X76.574 Y48.326 Z-8.753
X76.524 Y48.325 Z-8.672
X76.488 Y48.324 Z-8.585
X76.466 Z-8.494
X76.459 Y48.323 Z-8.4
G0 Z5.
X76.491 Y47.124
G1 Z-5. F267.
Z-11.4
X76.498 Z-11.494 F800.
X76.52 Y47.125 Z-11.585
X76.556 Y47.126 Z-11.672
X76.606 Y47.127 Z-11.753
X76.667 Y47.128 Z-11.824
X76.738 Y47.13 Z-11.885
X76.819 Y47.133 Z-11.935
X76.906 Y47.135 Z-11.971
X76.997 Y47.137 Z-11.993
X77.091 Y47.14 Z-12.
X77.691 Y47.156
G3 X78.274 Y47.772 I-0.016 J0.6
G1 X78.184 Y51.153
X78.118 Y53.046
X78.033 Y54.929
X77.924 Y56.799
X77.785 Y58.662
X77.703 Y59.577
X77.61 Y60.495
X77.508 Y61.409
X77.394 Y62.319
X77.268 Y63.225
X77.13 Y64.13
X76.98 Y65.037
X76.819 Y65.936
X76.463 Y67.764
X76.072 Y69.589
X75.651 Y71.422
X75.207 Y73.259
X74.304 Y76.858
X73.91 Y78.022
X73.477 Y79.268
X73.03 Y80.485
X72.806 Y81.063
X72.574 Y81.637
X72.335 Y82.196
X72.09 Y82.74
X71.838 Y83.269
X71.577 Y83.781
X71.308 Y84.277
X71.029 Y84.754
X70.74 Y85.213
X70.441 Y85.653
X70.131 Y86.075
X69.808 Y86.478
X69.467 Y86.869
X69.104 Y87.252
X68.719 Y87.631
X68.311 Y88.006
X67.883 Y88.377
X67.434 Y88.744
X66.966 Y89.11
X66.489 Y89.466
X65.459 Y90.199
X64.388 Y90.923
X63.637 Y91.42
X63.388 Y91.496
X62.775 Y91.674
X62.207 Y91.817
X61.655 Y91.926
X61.077 Y92.011
X60.466 Y92.078
X59.107 Y92.186
X57.514 Y92.284
X55.926 Y92.364
X55.52 Y92.376
Y8.895
X57.086 Y8.922
X58.152 Y8.959
X59.203 Y9.017
X60.249 Y9.102
X61.303 Y9.213
X63.358 Y9.469
X64.167 Y9.653
X65.068 Y9.88
X65.464 Y9.993
X65.852 Y10.115
X66.216 Y10.245
X66.561 Y10.384
X66.901 Y10.538
X67.25 Y10.713
X67.608 Y10.909
X67.967 Y11.118
X68.757 Y11.611
X69.159 Y11.875
X70.043 Y13.015
X70.589 Y13.749
X71.103 Y14.479
X71.585 Y15.214
X71.797 Y15.56
X72.005 Y15.918
X72.203 Y16.28
X72.394 Y16.65
X72.578 Y17.027
X72.75 Y17.399
X73.095 Y18.206
X73.412 Y19.028
X73.711 Y19.877
X73.995 Y20.751
X74.267 Y21.648
X74.53 Y22.563
X75.042 Y24.429
X75.757 Y27.305
X76.102 Y28.742
X76.431 Y30.173
X76.738 Y31.597
X77.019 Y33.014
X77.27 Y34.426
X77.486 Y35.834
X77.667 Y37.247
X77.815 Y38.674
X77.936 Y40.114
X78.034 Y41.568
X78.114 Y43.035
X78.179 Y44.511
X78.284 Y47.414
X78.274 Y47.772
G3 X77.659 Y48.355 I-0.6 J-0.016
G1 X77.059 Y48.339
X76.965 Y48.337 Z-11.993
X76.873 Y48.334 Z-11.971
X76.786 Y48.332 Z-11.935
X76.706 Y48.33 Z-11.885
X76.635 Y48.328 Z-11.824
X76.574 Y48.326 Z-11.753
X76.524 Y48.325 Z-11.672
X76.488 Y48.324 Z-11.585
X76.466 Z-11.494
X76.459 Y48.323 Z-11.4
G0 Z5.
X76.491 Y47.124
G1 Z-8. F267.
Z-14.4
X76.498 Z-14.494 F800.
X76.52 Y47.125 Z-14.585
X76.556 Y47.126 Z-14.672
X76.606 Y47.127 Z-14.753
X76.667 Y47.128 Z-14.824
X76.738 Y47.13 Z-14.885
X76.819 Y47.133 Z-14.935
X76.906 Y47.135 Z-14.971
X76.997 Y47.137 Z-14.993
X77.091 Y47.14 Z-15.
X77.691 Y47.156
G3 X78.274 Y47.772 I-0.016 J0.6
G1 X78.184 Y51.153
X78.118 Y53.046
X78.033 Y54.929
X77.924 Y56.799
X77.785 Y58.662
X77.703 Y59.577
X77.61 Y60.495
X77.508 Y61.409
X77.394 Y62.319
X77.268 Y63.225
X77.13 Y64.13
X76.98 Y65.037
X76.819 Y65.936
X76.463 Y67.764
X76.072 Y69.589
X75.651 Y71.422
X75.207 Y73.259
X74.304 Y76.858
X73.91 Y78.022
X73.477 Y79.268
X73.03 Y80.485
X72.806 Y81.063
X72.574 Y81.637
X72.335 Y82.196
X72.09 Y82.74
X71.838 Y83.269
X71.577 Y83.781
X71.308 Y84.277
X71.029 Y84.754
X70.74 Y85.213
X70.441 Y85.653
X70.131 Y86.075
X69.808 Y86.478
X69.467 Y86.869
X69.104 Y87.252
X68.719 Y87.631
X68.311 Y88.006
X67.883 Y88.377
X67.434 Y88.744
X66.966 Y89.11
X66.489 Y89.466
X65.459 Y90.199
X64.388 Y90.923
X63.637 Y91.42
X63.388 Y91.496
X62.775 Y91.674
X62.207 Y91.817
X61.655 Y91.926
X61.077 Y92.011
X60.466 Y92.078
X59.107 Y92.186
X57.514 Y92.284
X55.926 Y92.364
X55.52 Y92.376
Y8.895
X57.086 Y8.922
X58.152 Y8.959
X59.203 Y9.017
X60.249 Y9.102
X61.303 Y9.213
X63.358 Y9.469
X64.167 Y9.653
X65.068 Y9.88
X65.464 Y9.993
X65.852 Y10.115
X66.216 Y10.245
X66.561 Y10.384
X66.901 Y10.538
X67.25 Y10.713
X67.608 Y10.909
X67.967 Y11.118
X68.757 Y11.611
X69.159 Y11.875
X70.043 Y13.015
X70.589 Y13.749
X71.103 Y14.479
X71.585 Y15.214
X71.797 Y15.56
X72.005 Y15.918
X72.203 Y16.28
X72.394 Y16.65
X72.578 Y17.027
X72.75 Y17.399
X73.095 Y18.206
X73.412 Y19.028
X73.711 Y19.877
X73.995 Y20.751
X74.267 Y21.648
X74.53 Y22.563
X75.042 Y24.429
X75.757 Y27.305
X76.102 Y28.742
X76.431 Y30.173
X76.738 Y31.597
X77.019 Y33.014
X77.27 Y34.426
X77.486 Y35.834
X77.667 Y37.247
X77.815 Y38.674
X77.936 Y40.114
X78.034 Y41.568
X78.114 Y43.035
X78.179 Y44.511
X78.284 Y47.414
X78.274 Y47.772
G3 X77.659 Y48.355 I-0.6 J-0.016
G1 X77.059 Y48.339
X76.965 Y48.337 Z-14.993
X76.873 Y48.334 Z-14.971
X76.786 Y48.332 Z-14.935
X76.706 Y48.33 Z-14.885
X76.635 Y48.328 Z-14.824
X76.574 Y48.326 Z-14.753
X76.524 Y48.325 Z-14.672
X76.488 Y48.324 Z-14.585
X76.466 Z-14.494
X76.459 Y48.323 Z-14.4
G0 Z5.
X76.491 Y47.124
G1 Z-11. F267.
Z-15.4
X76.498 Z-15.494 F800.
X76.52 Y47.125 Z-15.585
X76.556 Y47.126 Z-15.672
X76.606 Y47.127 Z-15.753
X76.667 Y47.128 Z-15.824
X76.738 Y47.13 Z-15.885
X76.819 Y47.133 Z-15.935
X76.906 Y47.135 Z-15.971
X76.997 Y47.137 Z-15.993
X77.091 Y47.14 Z-16.
X77.691 Y47.156
G3 X78.274 Y47.772 I-0.016 J0.6
G1 X78.184 Y51.153
X78.118 Y53.046
X78.033 Y54.929
X77.924 Y56.799
X77.785 Y58.662
X77.703 Y59.577
X77.61 Y60.495
X77.508 Y61.409
X77.394 Y62.319
X77.268 Y63.225
X77.13 Y64.13
X76.98 Y65.037
X76.819 Y65.936
X76.463 Y67.764
X76.072 Y69.589
X75.651 Y71.422
X75.207 Y73.259
X74.304 Y76.858
X73.91 Y78.022
X73.477 Y79.268
X73.03 Y80.485
X72.806 Y81.063
X72.574 Y81.637
X72.335 Y82.196
X72.09 Y82.74
X71.838 Y83.269
X71.577 Y83.781
X71.308 Y84.277
X71.029 Y84.754
X70.74 Y85.213
X70.441 Y85.653
X70.131 Y86.075
X69.808 Y86.478
X69.467 Y86.869
X69.104 Y87.252
X68.719 Y87.631
X68.311 Y88.006
X67.883 Y88.377
X67.434 Y88.744
X66.966 Y89.11
X66.489 Y89.466
X65.459 Y90.199
X64.388 Y90.923
X63.637 Y91.42
X63.388 Y91.496
X62.775 Y91.674
X62.207 Y91.817
X61.655 Y91.926
X61.077 Y92.011
X60.466 Y92.078
X59.107 Y92.186
X57.514 Y92.284
X55.926 Y92.364
X55.52 Y92.376
Y8.895
X57.086 Y8.922
X58.152 Y8.959
X59.203 Y9.017
X60.249 Y9.102
X61.303 Y9.213
X63.358 Y9.469
X64.167 Y9.653
X65.068 Y9.88
X65.464 Y9.993
X65.852 Y10.115
X66.216 Y10.245
X66.561 Y10.384
X66.901 Y10.538
X67.25 Y10.713
X67.608 Y10.909
X67.967 Y11.118
X68.757 Y11.611
X69.159 Y11.875
X70.043 Y13.015
X70.589 Y13.749
X71.103 Y14.479
X71.585 Y15.214
X71.797 Y15.56
X72.005 Y15.918
X72.203 Y16.28
X72.394 Y16.65
X72.578 Y17.027
X72.75 Y17.399
X73.095 Y18.206
X73.412 Y19.028
X73.711 Y19.877
X73.995 Y20.751
X74.267 Y21.648
X74.53 Y22.563
X75.042 Y24.429
X75.757 Y27.305
X76.102 Y28.742
X76.431 Y30.173
X76.738 Y31.597
X77.019 Y33.014
X77.27 Y34.426
X77.486 Y35.834
X77.667 Y37.247
X77.815 Y38.674
X77.936 Y40.114
X78.034 Y41.568
X78.114 Y43.035
X78.179 Y44.511
X78.284 Y47.414
X78.274 Y47.772
G3 X77.659 Y48.355 I-0.6 J-0.016
G1 X77.059 Y48.339
X76.965 Y48.337 Z-15.993
X76.873 Y48.334 Z-15.971
X76.786 Y48.332 Z-15.935
X76.706 Y48.33 Z-15.885
X76.635 Y48.328 Z-15.824
X76.574 Y48.326 Z-15.753
X76.524 Y48.325 Z-15.672
X76.488 Y48.324 Z-15.585
X76.466 Z-15.494
X76.459 Y48.323 Z-15.4
G0 Z5.
X124.608 Y48.697
G1 Z4. F267.
Z-2.4
X124.6 Z-2.494 F800.
X124.578 Y48.696 Z-2.585
X124.542 Z-2.672
X124.493 Y48.695 Z-2.753
X124.432 Y48.694 Z-2.824
X124.361 Y48.692 Z-2.885
X124.28 Y48.691 Z-2.935
X124.193 Y48.689 Z-2.971
X124.102 Y48.687 Z-2.993
X124.008 Y48.686 Z-3.
X123.408 Y48.674
G3 X122.819 Y48.063 I0.011 J-0.6
G1 X122.818 Y47.893
X122.735 Y45.694
X122.734 Y45.67
X122.634 Y43.478
X122.632 Y43.444
X122.57 Y42.352
X122.568 Y42.321
X122.495 Y41.233
X122.493 Y41.197
X122.407 Y40.113
X122.403 Y40.071
X122.302 Y38.993
X122.297 Y38.942
X122.178 Y37.87
X122.171 Y37.816
X122.033 Y36.751
X122.024 Y36.688
X121.864 Y35.632
X121.852 Y35.559
X121.667 Y34.512
X121.653 Y34.438
X121.443 Y33.401
X121.425 Y33.316
X121.186 Y32.288
X121.163 Y32.198
X120.893 Y31.181
X120.867 Y31.088
X120.565 Y30.083
X120.533 Y29.982
X120.196 Y28.99
X120.166 Y28.907
X119.983 Y28.416
X119.963 Y28.365
X119.771 Y27.877
X119.74 Y27.801
X119.329 Y26.836
X119.285 Y26.737
X118.838 Y25.785
X118.795 Y25.698
X118.316 Y24.758
X118.275 Y24.681
X117.767 Y23.752
X117.728 Y23.682
X117.193 Y22.762
X117.157 Y22.702
X116.598 Y21.791
X116.564 Y21.737
X115.983 Y20.834
X115.953 Y20.788
X115.353 Y19.892
X115.328 Y19.856
X114.713 Y18.965
X114.691 Y18.933
X114.062 Y18.047
X114.037 Y18.013
X112.749 Y16.253
X112.731 Y16.229
X111.422 Y14.477
G2 X110.985 Y14.006 I-2.403 J1.795
G1 X109.728 Y12.915
X109.714 Y12.904
X108.452 Y11.822
X108.425 Y11.8
X107.154 Y10.736
X107.111 Y10.701
X105.824 Y9.664
X105.784 Y9.633
X105.134 Y9.127
X105.101 Y9.101
X104.445 Y8.606
X104.408 Y8.578
X103.746 Y8.094
X103.706 Y8.065
X103.038 Y7.593
X102.991 Y7.56
X102.315 Y7.102
X102.264 Y7.068
X101.58 Y6.623
X101.525 Y6.589
X100.833 Y6.16
X100.773 Y6.123
X100.071 Y5.711
X100.006 Y5.674
X99.294 Y5.279
X99.227 Y5.243
X98.505 Y4.867
X98.44 Y4.834
X97.709 Y4.475
X97.648 Y4.446
X96.908 Y4.103
X96.851 Y4.077
X96.103 Y3.749
X96.051 Y3.727
X95.295 Y3.413
X95.247 Y3.393
X94.485 Y3.091
X94.442 Y3.075
X93.673 Y2.784
X93.618 Y2.763
X92.065 Y2.21
X92.008 Y2.19
X90.438 Y1.666
X90.4 Y1.654
X88.819 Y1.15
X88.8 Y1.144
X87.214 Y0.649
G2 X86.824 Y0.556 I-0.893 J2.864
G1 X83.41 Y-0.024
X83.391 Y-0.027
X81.683 Y-0.306
X81.66 Y-0.31
X79.951 Y-0.576
X79.92 Y-0.58
X78.209 Y-0.828
X78.171 Y-0.833
X76.458 Y-1.059
X76.412 Y-1.065
X74.696 Y-1.264
X74.643 Y-1.27
X72.924 Y-1.438
X72.87 Y-1.443
X71.148 Y-1.58
X71.101 Y-1.583
X69.377 Y-1.693
X69.336 Y-1.695
X67.61 Y-1.781
X67.576 Y-1.782
X65.847 Y-1.849
X65.82 Y-1.85
X64.091 Y-1.901
X64.07
X62.339 Y-1.941
X62.322
X58.859 Y-2.
X58.808
X1.399
G2 X-1.601 Y1. I0. J3.
G1 Y5.749
G2 X1.38 Y8.749 I3. J0.
G1 X2.668 Y8.757
X3.917 Y8.783
X5.159 Y8.841
X6.391 Y8.921
X8.684 Y9.143
X10.958 Y9.395
X11.397 Y9.462
X11.83 Y9.541
X11.98 Y9.574
X12.121 Y9.611
X12.234 Y9.647
X12.322 Y9.679
X12.392 Y9.71
X12.467 Y9.749
X12.563 Y9.807
X12.667 Y9.875
X12.94 Y10.075
X12.977 Y10.138
X13.249 Y10.646
X13.339 Y10.836
X13.419 Y11.022
X13.483 Y11.198
X13.54 Y11.384
X13.593 Y11.591
X13.642 Y11.819
X13.686 Y12.068
X13.724 Y12.326
X13.796 Y12.945
X13.852 Y13.54
X14.106 Y19.4
Y82.18
X13.85 Y88.045
X13.793 Y88.629
X13.719 Y89.24
X13.68 Y89.492
X13.636 Y89.735
X13.587 Y89.958
X13.534 Y90.158
X13.477 Y90.336
X13.412 Y90.507
X13.333 Y90.689
X13.241 Y90.875
X12.965 Y91.376
X12.912 Y91.465
X12.599 Y91.7
X12.489 Y91.775
X12.384 Y91.839
X12.3 Y91.885
X12.222 Y91.921
X12.127 Y91.959
X12.033 Y91.99
X11.68 Y92.086
X11.265 Y92.172
X10.838 Y92.249
X9.716 Y92.39
X8.565 Y92.512
X7.413 Y92.594
X6.224 Y92.653
X4.902 Y92.703
X4.876 Y92.704
X3.537 Y92.767
X3.486 Y92.769
X0.81 Y92.939
G2 X-2. Y95.933 I0.19 J2.994
G1 Y100.587
G2 X0.984 Y103.587 I3. J0.
G1 X51.961 Y103.864
X52.049 Y103.863
X55.8 Y103.774
X55.819
X57.693 Y103.718
X57.716 Y103.717
X59.589 Y103.647
X59.616 Y103.646
X61.488 Y103.559
X61.525 Y103.557
X63.394 Y103.447
X63.436 Y103.444
X65.302 Y103.308
X65.354 Y103.304
X67.217 Y103.136
X67.273 Y103.13
X69.133 Y102.927
X69.185 Y102.921
X71.041 Y102.686
X71.086 Y102.68
X72.94 Y102.416
X72.977 Y102.41
X74.828 Y102.123
X74.858 Y102.119
X76.707 Y101.813
X76.729 Y101.809
X78.577 Y101.49
X78.596 Y101.486
X82.289 Y100.824
G2 X82.662 Y100.732 I-0.53 J-2.953
G1 X84.508 Y100.15
X84.528 Y100.143
X86.367 Y99.549
X86.407 Y99.535
X88.232 Y98.917
X88.276 Y98.902
X89.181 Y98.579
X89.216 Y98.566
X90.115 Y98.234
X90.156 Y98.218
X91.048 Y97.873
X91.093 Y97.855
X91.977 Y97.496
X92.027 Y97.475
X92.903 Y97.102
X92.958 Y97.077
X93.824 Y96.687
X93.884 Y96.659
X94.739 Y96.25
X94.803 Y96.218
X95.647 Y95.79
X95.716 Y95.753
X96.548 Y95.304
X96.62 Y95.263
X97.438 Y94.791
X97.508 Y94.749
X98.313 Y94.255
X98.377 Y94.215
X99.171 Y93.699
X99.23 Y93.66
X100.012 Y93.126
X100.066 Y93.088
X100.838 Y92.535
X100.887 Y92.5
X101.649 Y91.931
X101.693 Y91.897
X102.447 Y91.313
X102.485 Y91.283
X103.231 Y90.685
X103.265 Y90.657
X104.004 Y90.047
X104.035 Y90.02
X104.767 Y89.399
X104.794 Y89.376
X105.52 Y88.745
X105.549 Y88.718
X106.989 Y87.432
X107.018 Y87.406
X108.445 Y86.098
X108.46 Y86.084
X109.88 Y84.765
G2 X110.258 Y84.339 I-2.042 J-2.198
G1 X111.665 Y82.418
X111.683 Y82.394
X113.067 Y80.465
X113.088 Y80.435
X113.766 Y79.465
X113.787 Y79.435
X114.451 Y78.46
X114.475 Y78.423
X115.122 Y77.442
X115.15 Y77.4
X115.778 Y76.412
X115.808 Y76.364
X116.415 Y75.368
X116.449 Y75.311
X117.031 Y74.306
X117.066 Y74.244
X117.622 Y73.229
X117.661 Y73.155
X118.186 Y72.13
X118.226 Y72.048
X118.718 Y71.011
X118.758 Y70.925
X119.216 Y69.875
X119.248 Y69.798
X119.462 Y69.268
X119.48 Y69.221
X119.685 Y68.687
X119.705 Y68.635
X119.9 Y68.098
X119.919 Y68.045
X120.104 Y67.504
X120.128 Y67.43
X120.47 Y66.338
X120.498 Y66.243
X120.804 Y65.138
X120.827 Y65.052
X121.101 Y63.935
X121.119 Y63.855
X121.363 Y62.727
X121.379 Y62.65
X121.594 Y61.512
X121.606 Y61.443
X121.795 Y60.295
X121.805 Y60.232
X121.97 Y59.076
X121.977 Y59.023
X122.122 Y57.86
X122.128 Y57.807
X122.253 Y56.637
X122.257 Y56.595
X122.366 Y55.419
X122.369 Y55.382
X122.464 Y54.201
X122.466 Y54.173
X122.55 Y52.987
X122.553 Y52.951
X122.693 Y50.57
X122.694 Y50.547
X122.816 Y48.159
X122.819 Y48.063
G3 X123.431 Y47.475 I0.6 J0.011
G1 X124.031 Y47.486
X124.124 Y47.488 Z-2.993
X124.216 Y47.489 Z-2.971
X124.303 Y47.491 Z-2.935
X124.383 Y47.493 Z-2.885
X124.455 Y47.494 Z-2.824
X124.516 Y47.495 Z-2.753
X124.565 Y47.496 Z-2.672
X124.601 Y47.497 Z-2.585
X124.623 Z-2.494
X124.63 Z-2.4
G0 Z5.
X124.608 Y48.697
G1 Z1. F267.
Z-5.4
X124.6 Z-5.494 F800.
X124.578 Y48.696 Z-5.585
X124.542 Z-5.672
X124.493 Y48.695 Z-5.753
X124.432 Y48.694 Z-5.824
X124.361 Y48.692 Z-5.885
X124.28 Y48.691 Z-5.935
X124.193 Y48.689 Z-5.971
X124.102 Y48.687 Z-5.993
X124.008 Y48.686 Z-6.
X123.408 Y48.674
G3 X122.819 Y48.063 I0.011 J-0.6
G1 X122.818 Y47.893
X122.735 Y45.694
X122.734 Y45.67
X122.634 Y43.478
X122.632 Y43.444
X122.57 Y42.352
X122.568 Y42.321
X122.495 Y41.233
X122.493 Y41.197
X122.407 Y40.113
X122.403 Y40.071
X122.302 Y38.993
X122.297 Y38.942
X122.178 Y37.87
X122.171 Y37.816
X122.033 Y36.751
X122.024 Y36.688
X121.864 Y35.632
X121.852 Y35.559
X121.667 Y34.512
X121.653 Y34.438
X121.443 Y33.401
X121.425 Y33.316
X121.186 Y32.288
X121.163 Y32.198
X120.893 Y31.181
X120.867 Y31.088
X120.565 Y30.083
X120.533 Y29.982
X120.196 Y28.99
X120.166 Y28.907
X119.983 Y28.416
X119.963 Y28.365
X119.771 Y27.877
X119.74 Y27.801
X119.329 Y26.836
X119.285 Y26.737
X118.838 Y25.785
X118.795 Y25.698
X118.316 Y24.758
X118.275 Y24.681
X117.767 Y23.752
X117.728 Y23.682
X117.193 Y22.762
X117.157 Y22.702
X116.598 Y21.791
X116.564 Y21.737
X115.983 Y20.834
X115.953 Y20.788
X115.353 Y19.892
X115.328 Y19.856
X114.713 Y18.965
X114.691 Y18.933
X114.062 Y18.047
X114.037 Y18.013
X112.749 Y16.253
X112.731 Y16.229
X111.422 Y14.477
G2 X110.985 Y14.006 I-2.403 J1.795
G1 X109.728 Y12.915
X109.714 Y12.904
X108.452 Y11.822
X108.425 Y11.8
X107.154 Y10.736
X107.111 Y10.701
X105.824 Y9.664
X105.784 Y9.633
X105.134 Y9.127
X105.101 Y9.101
X104.445 Y8.606
X104.408 Y8.578
X103.746 Y8.094
X103.706 Y8.065
X103.038 Y7.593
X102.991 Y7.56
X102.315 Y7.102
X102.264 Y7.068
X101.58 Y6.623
X101.525 Y6.589
X100.833 Y6.16
X100.773 Y6.123
X100.071 Y5.711
X100.006 Y5.674
X99.294 Y5.279
X99.227 Y5.243
X98.505 Y4.867
X98.44 Y4.834
X97.709 Y4.475
X97.648 Y4.446
X96.908 Y4.103
X96.851 Y4.077
X96.103 Y3.749
X96.051 Y3.727
X95.295 Y3.413
X95.247 Y3.393
X94.485 Y3.091
X94.442 Y3.075
X93.673 Y2.784
X93.618 Y2.763
X92.065 Y2.21
X92.008 Y2.19
X90.438 Y1.666
X90.4 Y1.654
X88.819 Y1.15
X88.8 Y1.144
X87.214 Y0.649
G2 X86.824 Y0.556 I-0.893 J2.864
G1 X83.41 Y-0.024
X83.391 Y-0.027
X81.683 Y-0.306
X81.66 Y-0.31
X79.951 Y-0.576
X79.92 Y-0.58
X78.209 Y-0.828
X78.171 Y-0.833
X76.458 Y-1.059
X76.412 Y-1.065
X74.696 Y-1.264
X74.643 Y-1.27
X72.924 Y-1.438
X72.87 Y-1.443
X71.148 Y-1.58
X71.101 Y-1.583
X69.377 Y-1.693
X69.336 Y-1.695
X67.61 Y-1.781
X67.576 Y-1.782
X65.847 Y-1.849
X65.82 Y-1.85
X64.091 Y-1.901
X64.07
X62.339 Y-1.941
X62.322
X58.859 Y-2.
X58.808
X1.399
G2 X-1.601 Y1. I0. J3.
G1 Y5.749
G2 X1.38 Y8.749 I3. J0.
G1 X2.668 Y8.757
X3.917 Y8.783
X5.159 Y8.841
X6.391 Y8.921
X8.684 Y9.143
X10.958 Y9.395
X11.397 Y9.462
X11.83 Y9.541
X11.98 Y9.574
X12.121 Y9.611
X12.234 Y9.647
X12.322 Y9.679
X12.392 Y9.71
X12.467 Y9.749
X12.563 Y9.807
X12.667 Y9.875
X12.94 Y10.075
X12.977 Y10.138
X13.249 Y10.646
X13.339 Y10.836
X13.419 Y11.022
X13.483 Y11.198
X13.54 Y11.384
X13.593 Y11.591
X13.642 Y11.819
X13.686 Y12.068
X13.724 Y12.326
X13.796 Y12.945
X13.852 Y13.54
X14.106 Y19.4
Y82.18
X13.85 Y88.045
X13.793 Y88.629
X13.719 Y89.24
X13.68 Y89.492
X13.636 Y89.735
X13.587 Y89.958
X13.534 Y90.158
X13.477 Y90.336
X13.412 Y90.507
X13.333 Y90.689
X13.241 Y90.875
X12.965 Y91.376
X12.912 Y91.465
X12.599 Y91.7
X12.489 Y91.775
X12.384 Y91.839
X12.3 Y91.885
X12.222 Y91.921
X12.127 Y91.959
X12.033 Y91.99
X11.68 Y92.086
X11.265 Y92.172
X10.838 Y92.249
X9.716 Y92.39
X8.565 Y92.512
X7.413 Y92.594
X6.224 Y92.653
X4.902 Y92.703
X4.876 Y92.704
X3.537 Y92.767
X3.486 Y92.769
X0.81 Y92.939
G2 X-2. Y95.933 I0.19 J2.994
G1 Y100.587
G2 X0.984 Y103.587 I3. J0.
G1 X51.961 Y103.864
X52.049 Y103.863
X55.8 Y103.774
X55.819
X57.693 Y103.718
X57.716 Y103.717
X59.589 Y103.647
X59.616 Y103.646
X61.488 Y103.559
X61.525 Y103.557
X63.394 Y103.447
X63.436 Y103.444
X65.302 Y103.308
X65.354 Y103.304
X67.217 Y103.136
X67.273 Y103.13
X69.133 Y102.927
X69.185 Y102.921
X71.041 Y102.686
X71.086 Y102.68
X72.94 Y102.416
X72.977 Y102.41
X74.828 Y102.123
X74.858 Y102.119
X76.707 Y101.813
X76.729 Y101.809
X78.577 Y101.49
X78.596 Y101.486
X82.289 Y100.824
G2 X82.662 Y100.732 I-0.53 J-2.953
G1 X84.508 Y100.15
X84.528 Y100.143
X86.367 Y99.549
X86.407 Y99.535
X88.232 Y98.917
X88.276 Y98.902
X89.181 Y98.579
X89.216 Y98.566
X90.115 Y98.234
X90.156 Y98.218
X91.048 Y97.873
X91.093 Y97.855
X91.977 Y97.496
X92.027 Y97.475
X92.903 Y97.102
X92.958 Y97.077
X93.824 Y96.687
X93.884 Y96.659
X94.739 Y96.25
X94.803 Y96.218
X95.647 Y95.79
X95.716 Y95.753
X96.548 Y95.304
X96.62 Y95.263
X97.438 Y94.791
X97.508 Y94.749
X98.313 Y94.255
X98.377 Y94.215
X99.171 Y93.699
X99.23 Y93.66
X100.012 Y93.126
X100.066 Y93.088
X100.838 Y92.535
X100.887 Y92.5
X101.649 Y91.931
X101.693 Y91.897
X102.447 Y91.313
X102.485 Y91.283
X103.231 Y90.685
X103.265 Y90.657
X104.004 Y90.047
X104.035 Y90.02
X104.767 Y89.399
X104.794 Y89.376
X105.52 Y88.745
X105.549 Y88.718
X106.989 Y87.432
X107.018 Y87.406
X108.445 Y86.098
X108.46 Y86.084
X109.88 Y84.765
G2 X110.258 Y84.339 I-2.042 J-2.198
G1 X111.665 Y82.418
X111.683 Y82.394
X113.067 Y80.465
X113.088 Y80.435
X113.766 Y79.465
X113.787 Y79.435
X114.451 Y78.46
X114.475 Y78.423
X115.122 Y77.442
X115.15 Y77.4
X115.778 Y76.412
X115.808 Y76.364
X116.415 Y75.368
X116.449 Y75.311
X117.031 Y74.306
X117.066 Y74.244
X117.622 Y73.229
X117.661 Y73.155
X118.186 Y72.13
X118.226 Y72.048
X118.718 Y71.011
X118.758 Y70.925
X119.216 Y69.875
X119.248 Y69.798
X119.462 Y69.268
X119.48 Y69.221
X119.685 Y68.687
X119.705 Y68.635
X119.9 Y68.098
X119.919 Y68.045
X120.104 Y67.504
X120.128 Y67.43
X120.47 Y66.338
X120.498 Y66.243
X120.804 Y65.138
X120.827 Y65.052
X121.101 Y63.935
X121.119 Y63.855
X121.363 Y62.727
X121.379 Y62.65
X121.594 Y61.512
X121.606 Y61.443
X121.795 Y60.295
X121.805 Y60.232
X121.97 Y59.076
X121.977 Y59.023
X122.122 Y57.86
X122.128 Y57.807
X122.253 Y56.637
X122.257 Y56.595
X122.366 Y55.419
X122.369 Y55.382
X122.464 Y54.201
X122.466 Y54.173
X122.55 Y52.987
X122.553 Y52.951
X122.693 Y50.57
X122.694 Y50.547
X122.816 Y48.159
X122.819 Y48.063
G3 X123.431 Y47.475 I0.6 J0.011
G1 X124.031 Y47.486
X124.124 Y47.488 Z-5.993
X124.216 Y47.489 Z-5.971
X124.303 Y47.491 Z-5.935
X124.383 Y47.493 Z-5.885
X124.455 Y47.494 Z-5.824
X124.516 Y47.495 Z-5.753
X124.565 Y47.496 Z-5.672
X124.601 Y47.497 Z-5.585
X124.623 Z-5.494
X124.63 Z-5.4
G0 Z5.
X124.608 Y48.697
G1 Z-2. F267.
Z-8.4
X124.6 Z-8.494 F800.
X124.578 Y48.696 Z-8.585
X124.542 Z-8.672
X124.493 Y48.695 Z-8.753
X124.432 Y48.694 Z-8.824
X124.361 Y48.692 Z-8.885
X124.28 Y48.691 Z-8.935
X124.193 Y48.689 Z-8.971
X124.102 Y48.687 Z-8.993
X124.008 Y48.686 Z-9.
X123.408 Y48.674
G3 X122.819 Y48.063 I0.011 J-0.6
G1 X122.818 Y47.893
X122.735 Y45.694
X122.734 Y45.67
X122.634 Y43.478
X122.632 Y43.444
X122.57 Y42.352
X122.568 Y42.321
X122.495 Y41.233
X122.493 Y41.197
X122.407 Y40.113
X122.403 Y40.071
X122.302 Y38.993
X122.297 Y38.942
X122.178 Y37.87
X122.171 Y37.816
X122.033 Y36.751
X122.024 Y36.688
X121.864 Y35.632
X121.852 Y35.559
X121.667 Y34.512
X121.653 Y34.438
X121.443 Y33.401
X121.425 Y33.316
X121.186 Y32.288
X121.163 Y32.198
X120.893 Y31.181
X120.867 Y31.088
X120.565 Y30.083
X120.533 Y29.982
X120.196 Y28.99
X120.166 Y28.907
X119.983 Y28.416
X119.963 Y28.365
X119.771 Y27.877
X119.74 Y27.801
X119.329 Y26.836
X119.285 Y26.737
X118.838 Y25.785
X118.795 Y25.698
X118.316 Y24.758
X118.275 Y24.681
X117.767 Y23.752
X117.728 Y23.682
X117.193 Y22.762
X117.157 Y22.702
X116.598 Y21.791
X116.564 Y21.737
X115.983 Y20.834
X115.953 Y20.788
X115.353 Y19.892
X115.328 Y19.856
X114.713 Y18.965
X114.691 Y18.933
X114.062 Y18.047
X114.037 Y18.013
X112.749 Y16.253
X112.731 Y16.229
X111.422 Y14.477
G2 X110.985 Y14.006 I-2.403 J1.795
G1 X109.728 Y12.915
X109.714 Y12.904
X108.452 Y11.822
X108.425 Y11.8
X107.154 Y10.736
X107.111 Y10.701
X105.824 Y9.664
X105.784 Y9.633
X105.134 Y9.127
X105.101 Y9.101
X104.445 Y8.606
X104.408 Y8.578
X103.746 Y8.094
X103.706 Y8.065
X103.038 Y7.593
X102.991 Y7.56
X102.315 Y7.102
X102.264 Y7.068
X101.58 Y6.623
X101.525 Y6.589
X100.833 Y6.16
X100.773 Y6.123
X100.071 Y5.711
X100.006 Y5.674
X99.294 Y5.279
X99.227 Y5.243
X98.505 Y4.867
X98.44 Y4.834
X97.709 Y4.475
X97.648 Y4.446
X96.908 Y4.103
X96.851 Y4.077
X96.103 Y3.749
X96.051 Y3.727
X95.295 Y3.413
X95.247 Y3.393
X94.485 Y3.091
X94.442 Y3.075
X93.673 Y2.784
X93.618 Y2.763
X92.065 Y2.21
X92.008 Y2.19
X90.438 Y1.666
X90.4 Y1.654
X88.819 Y1.15
X88.8 Y1.144
X87.214 Y0.649
G2 X86.824 Y0.556 I-0.893 J2.864
G1 X83.41 Y-0.024
X83.391 Y-0.027
X81.683 Y-0.306
X81.66 Y-0.31
X79.951 Y-0.576
X79.92 Y-0.58
X78.209 Y-0.828
X78.171 Y-0.833
X76.458 Y-1.059
X76.412 Y-1.065
X74.696 Y-1.264
X74.643 Y-1.27
X72.924 Y-1.438
X72.87 Y-1.443
X71.148 Y-1.58
X71.101 Y-1.583
X69.377 Y-1.693
X69.336 Y-1.695
X67.61 Y-1.781
X67.576 Y-1.782
X65.847 Y-1.849
X65.82 Y-1.85
X64.091 Y-1.901
X64.07
X62.339 Y-1.941
X62.322
X58.859 Y-2.
X58.808
X1.399
G2 X-1.601 Y1. I0. J3.
G1 Y5.749
G2 X1.38 Y8.749 I3. J0.
G1 X2.668 Y8.757
X3.917 Y8.783
X5.159 Y8.841
X6.391 Y8.921
X8.684 Y9.143
X10.958 Y9.395
X11.397 Y9.462
X11.83 Y9.541
X11.98 Y9.574
X12.121 Y9.611
X12.234 Y9.647
X12.322 Y9.679
X12.392 Y9.71
X12.467 Y9.749
X12.563 Y9.807
X12.667 Y9.875
X12.94 Y10.075
X12.977 Y10.138
X13.249 Y10.646
X13.339 Y10.836
X13.419 Y11.022
X13.483 Y11.198
X13.54 Y11.384
X13.593 Y11.591
X13.642 Y11.819
X13.686 Y12.068
X13.724 Y12.326
X13.796 Y12.945
X13.852 Y13.54
X14.106 Y19.4
Y82.18
X13.85 Y88.045
X13.793 Y88.629
X13.719 Y89.24
X13.68 Y89.492
X13.636 Y89.735
X13.587 Y89.958
X13.534 Y90.158
X13.477 Y90.336
X13.412 Y90.507
X13.333 Y90.689
X13.241 Y90.875
X12.965 Y91.376
X12.912 Y91.465
X12.599 Y91.7
X12.489 Y91.775
X12.384 Y91.839
X12.3 Y91.885
X12.222 Y91.921
X12.127 Y91.959
X12.033 Y91.99
X11.68 Y92.086
X11.265 Y92.172
X10.838 Y92.249
X9.716 Y92.39
X8.565 Y92.512
X7.413 Y92.594
X6.224 Y92.653
X4.902 Y92.703
X4.876 Y92.704
X3.537 Y92.767
X3.486 Y92.769
X0.81 Y92.939
G2 X-2. Y95.933 I0.19 J2.994
G1 Y100.587
G2 X0.984 Y103.587 I3. J0.
G1 X51.961 Y103.864
X52.049 Y103.863
X55.8 Y103.774
X55.819
X57.693 Y103.718
X57.716 Y103.717
X59.589 Y103.647
X59.616 Y103.646
X61.488 Y103.559
X61.525 Y103.557
X63.394 Y103.447
X63.436 Y103.444
X65.302 Y103.308
X65.354 Y103.304
X67.217 Y103.136
X67.273 Y103.13
X69.133 Y102.927
X69.185 Y102.921
X71.041 Y102.686
X71.086 Y102.68
X72.94 Y102.416
X72.977 Y102.41
X74.828 Y102.123
X74.858 Y102.119
X76.707 Y101.813
X76.729 Y101.809
X78.577 Y101.49
X78.596 Y101.486
X82.289 Y100.824
G2 X82.662 Y100.732 I-0.53 J-2.953
G1 X84.508 Y100.15
X84.528 Y100.143
X86.367 Y99.549
X86.407 Y99.535
X88.232 Y98.917
X88.276 Y98.902
X89.181 Y98.579
X89.216 Y98.566
X90.115 Y98.234
X90.156 Y98.218
X91.048 Y97.873
X91.093 Y97.855
X91.977 Y97.496
X92.027 Y97.475
X92.903 Y97.102
X92.958 Y97.077
X93.824 Y96.687
X93.884 Y96.659
X94.739 Y96.25
X94.803 Y96.218
X95.647 Y95.79
X95.716 Y95.753
X96.548 Y95.304
X96.62 Y95.263
X97.438 Y94.791
X97.508 Y94.749
X98.313 Y94.255
X98.377 Y94.215
X99.171 Y93.699
X99.23 Y93.66
X100.012 Y93.126
X100.066 Y93.088
X100.838 Y92.535
X100.887 Y92.5
X101.649 Y91.931
X101.693 Y91.897
X102.447 Y91.313
X102.485 Y91.283
X103.231 Y90.685
X103.265 Y90.657
X104.004 Y90.047
X104.035 Y90.02
X104.767 Y89.399
X104.794 Y89.376
X105.52 Y88.745
X105.549 Y88.718
X106.989 Y87.432
X107.018 Y87.406
X108.445 Y86.098
X108.46 Y86.084
X109.88 Y84.765
G2 X110.258 Y84.339 I-2.042 J-2.198
G1 X111.665 Y82.418
X111.683 Y82.394
X113.067 Y80.465
X113.088 Y80.435
X113.766 Y79.465
X113.787 Y79.435
X114.451 Y78.46
X114.475 Y78.423
X115.122 Y77.442
X115.15 Y77.4
X115.778 Y76.412
X115.808 Y76.364
X116.415 Y75.368
X116.449 Y75.311
X117.031 Y74.306
X117.066 Y74.244
X117.622 Y73.229
X117.661 Y73.155
X118.186 Y72.13
X118.226 Y72.048
X118.718 Y71.011
X118.758 Y70.925
X119.216 Y69.875
X119.248 Y69.798
X119.462 Y69.268
X119.48 Y69.221
X119.685 Y68.687
X119.705 Y68.635
X119.9 Y68.098
X119.919 Y68.045
X120.104 Y67.504
X120.128 Y67.43
X120.47 Y66.338
X120.498 Y66.243
X120.804 Y65.138
X120.827 Y65.052
X121.101 Y63.935
X121.119 Y63.855
X121.363 Y62.727
X121.379 Y62.65
X121.594 Y61.512
X121.606 Y61.443
X121.795 Y60.295
X121.805 Y60.232
X121.97 Y59.076
X121.977 Y59.023
X122.122 Y57.86
X122.128 Y57.807
X122.253 Y56.637
X122.257 Y56.595
X122.366 Y55.419
X122.369 Y55.382
X122.464 Y54.201
X122.466 Y54.173
X122.55 Y52.987
X122.553 Y52.951
X122.693 Y50.57
X122.694 Y50.547
X122.816 Y48.159
X122.819 Y48.063
G3 X123.431 Y47.475 I0.6 J0.011
G1 X124.031 Y47.486
X124.124 Y47.488 Z-8.993
X124.216 Y47.489 Z-8.971
X124.303 Y47.491 Z-8.935
X124.383 Y47.493 Z-8.885
X124.455 Y47.494 Z-8.824
X124.516 Y47.495 Z-8.753
X124.565 Y47.496 Z-8.672
X124.601 Y47.497 Z-8.585
X124.623 Z-8.494
X124.63 Z-8.4
G0 Z5.
X124.608 Y48.697
G1 Z-5. F267.
Z-11.4
X124.6 Z-11.494 F800.
X124.578 Y48.696 Z-11.585
X124.542 Z-11.672
X124.493 Y48.695 Z-11.753
X124.432 Y48.694 Z-11.824
X124.361 Y48.692 Z-11.885
X124.28 Y48.691 Z-11.935
X124.193 Y48.689 Z-11.971
X124.102 Y48.687 Z-11.993
X124.008 Y48.686 Z-12.
X123.408 Y48.674
G3 X122.819 Y48.063 I0.011 J-0.6
G1 X122.818 Y47.893
X122.735 Y45.694
X122.734 Y45.67
X122.634 Y43.478
X122.632 Y43.444
X122.57 Y42.352
X122.568 Y42.321
X122.495 Y41.233
X122.493 Y41.197
X122.407 Y40.113
X122.403 Y40.071
X122.302 Y38.993
X122.297 Y38.942
X122.178 Y37.87
X122.171 Y37.816
X122.033 Y36.751
X122.024 Y36.688
X121.864 Y35.632
X121.852 Y35.559
X121.667 Y34.512
X121.653 Y34.438
X121.443 Y33.401
X121.425 Y33.316
X121.186 Y32.288
X121.163 Y32.198
X120.893 Y31.181
X120.867 Y31.088
X120.565 Y30.083
X120.533 Y29.982
X120.196 Y28.99
X120.166 Y28.907
X119.983 Y28.416
X119.963 Y28.365
X119.771 Y27.877
X119.74 Y27.801
X119.329 Y26.836
X119.285 Y26.737
X118.838 Y25.785
X118.795 Y25.698
X118.316 Y24.758
X118.275 Y24.681
X117.767 Y23.752
X117.728 Y23.682
X117.193 Y22.762
X117.157 Y22.702
X116.598 Y21.791
X116.564 Y21.737
X115.983 Y20.834
X115.953 Y20.788
X115.353 Y19.892
X115.328 Y19.856
X114.713 Y18.965
X114.691 Y18.933
X114.062 Y18.047
X114.037 Y18.013
X112.749 Y16.253
X112.731 Y16.229
X111.422 Y14.477
G2 X110.985 Y14.006 I-2.403 J1.795
G1 X109.728 Y12.915
X109.714 Y12.904
X108.452 Y11.822
X108.425 Y11.8
X107.154 Y10.736
X107.111 Y10.701
X105.824 Y9.664
X105.784 Y9.633
X105.134 Y9.127
X105.101 Y9.101
X104.445 Y8.606
X104.408 Y8.578
X103.746 Y8.094
X103.706 Y8.065
X103.038 Y7.593
X102.991 Y7.56
X102.315 Y7.102
X102.264 Y7.068
X101.58 Y6.623
X101.525 Y6.589
X100.833 Y6.16
X100.773 Y6.123
X100.071 Y5.711
X100.006 Y5.674
X99.294 Y5.279
X99.227 Y5.243
X98.505 Y4.867
X98.44 Y4.834
X97.709 Y4.475
X97.648 Y4.446
X96.908 Y4.103
X96.851 Y4.077
X96.103 Y3.749
X96.051 Y3.727
X95.295 Y3.413
X95.247 Y3.393
X94.485 Y3.091
X94.442 Y3.075
X93.673 Y2.784
X93.618 Y2.763
X92.065 Y2.21
X92.008 Y2.19
X90.438 Y1.666
X90.4 Y1.654
X88.819 Y1.15
X88.8 Y1.144
X87.214 Y0.649
G2 X86.824 Y0.556 I-0.893 J2.864
G1 X83.41 Y-0.024
X83.391 Y-0.027
X81.683 Y-0.306
X81.66 Y-0.31
X79.951 Y-0.576
X79.92 Y-0.58
X78.209 Y-0.828
X78.171 Y-0.833
X76.458 Y-1.059
X76.412 Y-1.065
X74.696 Y-1.264
X74.643 Y-1.27
X72.924 Y-1.438
X72.87 Y-1.443
X71.148 Y-1.58
X71.101 Y-1.583
X69.377 Y-1.693
X69.336 Y-1.695
X67.61 Y-1.781
X67.576 Y-1.782
X65.847 Y-1.849
X65.82 Y-1.85
X64.091 Y-1.901
X64.07
X62.339 Y-1.941
X62.322
X58.859 Y-2.
X58.808
X1.399
G2 X-1.601 Y1. I0. J3.
G1 Y5.749
G2 X1.38 Y8.749 I3. J0.
G1 X2.668 Y8.757
X3.917 Y8.783
X5.159 Y8.841
X6.391 Y8.921
X8.684 Y9.143
X10.958 Y9.395
X11.397 Y9.462
X11.83 Y9.541
X11.98 Y9.574
X12.121 Y9.611
X12.234 Y9.647
X12.322 Y9.679
X12.392 Y9.71
X12.467 Y9.749
X12.563 Y9.807
X12.667 Y9.875
X12.94 Y10.075
X12.977 Y10.138
X13.249 Y10.646
X13.339 Y10.836
X13.419 Y11.022
X13.483 Y11.198
X13.54 Y11.384
X13.593 Y11.591
X13.642 Y11.819
X13.686 Y12.068
X13.724 Y12.326
X13.796 Y12.945
X13.852 Y13.54
X14.106 Y19.4
Y82.18
X13.85 Y88.045
X13.793 Y88.629
X13.719 Y89.24
X13.68 Y89.492
X13.636 Y89.735
X13.587 Y89.958
X13.534 Y90.158
X13.477 Y90.336
X13.412 Y90.507
X13.333 Y90.689
X13.241 Y90.875
X12.965 Y91.376
X12.912 Y91.465
X12.599 Y91.7
X12.489 Y91.775
X12.384 Y91.839
X12.3 Y91.885
X12.222 Y91.921
X12.127 Y91.959
X12.033 Y91.99
X11.68 Y92.086
X11.265 Y92.172
X10.838 Y92.249
X9.716 Y92.39
X8.565 Y92.512
X7.413 Y92.594
X6.224 Y92.653
X4.902 Y92.703
X4.876 Y92.704
X3.537 Y92.767
X3.486 Y92.769
X0.81 Y92.939
G2 X-2. Y95.933 I0.19 J2.994
G1 Y100.587
G2 X0.984 Y103.587 I3. J0.
G1 X51.961 Y103.864
X52.049 Y103.863
X55.8 Y103.774
X55.819
X57.693 Y103.718
X57.716 Y103.717
X59.589 Y103.647
X59.616 Y103.646
X61.488 Y103.559
X61.525 Y103.557
X63.394 Y103.447
X63.436 Y103.444
X65.302 Y103.308
X65.354 Y103.304
X67.217 Y103.136
X67.273 Y103.13
X69.133 Y102.927
X69.185 Y102.921
X71.041 Y102.686
X71.086 Y102.68
X72.94 Y102.416
X72.977 Y102.41
X74.828 Y102.123
X74.858 Y102.119
X76.707 Y101.813
X76.729 Y101.809
X78.577 Y101.49
X78.596 Y101.486
X82.289 Y100.824
G2 X82.662 Y100.732 I-0.53 J-2.953
G1 X84.508 Y100.15
X84.528 Y100.143
X86.367 Y99.549
X86.407 Y99.535
X88.232 Y98.917
X88.276 Y98.902
X89.181 Y98.579
X89.216 Y98.566
X90.115 Y98.234
X90.156 Y98.218
X91.048 Y97.873
X91.093 Y97.855
X91.977 Y97.496
X92.027 Y97.475
X92.903 Y97.102
X92.958 Y97.077
X93.824 Y96.687
X93.884 Y96.659
X94.739 Y96.25
X94.803 Y96.218
X95.647 Y95.79
X95.716 Y95.753
X96.548 Y95.304
X96.62 Y95.263
X97.438 Y94.791
X97.508 Y94.749
X98.313 Y94.255
X98.377 Y94.215
X99.171 Y93.699
X99.23 Y93.66
X100.012 Y93.126
X100.066 Y93.088
X100.838 Y92.535
X100.887 Y92.5
X101.649 Y91.931
X101.693 Y91.897
X102.447 Y91.313
X102.485 Y91.283
X103.231 Y90.685
X103.265 Y90.657
X104.004 Y90.047
X104.035 Y90.02
X104.767 Y89.399
X104.794 Y89.376
X105.52 Y88.745
X105.549 Y88.718
X106.989 Y87.432
X107.018 Y87.406
X108.445 Y86.098
X108.46 Y86.084
X109.88 Y84.765
G2 X110.258 Y84.339 I-2.042 J-2.198
G1 X111.665 Y82.418
X111.683 Y82.394
X113.067 Y80.465
X113.088 Y80.435
X113.766 Y79.465
X113.787 Y79.435
X114.451 Y78.46
X114.475 Y78.423
X115.122 Y77.442
X115.15 Y77.4
X115.778 Y76.412
X115.808 Y76.364
X116.415 Y75.368
X116.449 Y75.311
X117.031 Y74.306
X117.066 Y74.244
X117.622 Y73.229
X117.661 Y73.155
X118.186 Y72.13
X118.226 Y72.048
X118.718 Y71.011
X118.758 Y70.925
X119.216 Y69.875
X119.248 Y69.798
X119.462 Y69.268
X119.48 Y69.221
X119.685 Y68.687
X119.705 Y68.635
X119.9 Y68.098
X119.919 Y68.045
X120.104 Y67.504
X120.128 Y67.43
X120.47 Y66.338
X120.498 Y66.243
X120.804 Y65.138
X120.827 Y65.052
X121.101 Y63.935
X121.119 Y63.855
X121.363 Y62.727
X121.379 Y62.65
X121.594 Y61.512
X121.606 Y61.443
X121.795 Y60.295
X121.805 Y60.232
X121.97 Y59.076
X121.977 Y59.023
X122.122 Y57.86
X122.128 Y57.807
X122.253 Y56.637
X122.257 Y56.595
X122.366 Y55.419
X122.369 Y55.382
X122.464 Y54.201
X122.466 Y54.173
X122.55 Y52.987
X122.553 Y52.951
X122.693 Y50.57
X122.694 Y50.547
X122.816 Y48.159
X122.819 Y48.063
G3 X123.431 Y47.475 I0.6 J0.011
G1 X124.031 Y47.486
X124.124 Y47.488 Z-11.993
X124.216 Y47.489 Z-11.971
X124.303 Y47.491 Z-11.935
X124.383 Y47.493 Z-11.885
X124.455 Y47.494 Z-11.824
X124.516 Y47.495 Z-11.753
X124.565 Y47.496 Z-11.672
X124.601 Y47.497 Z-11.585
X124.623 Z-11.494
X124.63 Z-11.4
G0 Z5.
X124.608 Y48.697
G1 Z-8. F267.
Z-14.
X124.008 Y48.686 F800.
X123.408 Y48.674
G3 X122.819 Y48.063 I0.011 J-0.6
G1 X122.818 Y47.893
X122.735 Y45.694
X122.734 Y45.67
X122.634 Y43.478
X122.632 Y43.444
X122.57 Y42.352
X122.568 Y42.321
X122.54 Y41.904
Z-15. F267.
X122.495 Y41.233 F800.
X122.493 Y41.197
X122.407 Y40.113
X122.403 Y40.071
X122.302 Y38.993
X122.297 Y38.942
X122.178 Y37.87
X122.171 Y37.816
X122.033 Y36.751
X122.024 Y36.688
X121.864 Y35.632
X121.852 Y35.559
X121.667 Y34.512
X121.653 Y34.438
X121.443 Y33.401
X121.425 Y33.316
X121.186 Y32.288
X121.163 Y32.198
X120.893 Y31.181
X120.867 Y31.088
X120.565 Y30.083
X120.533 Y29.982
X120.196 Y28.99
X120.166 Y28.907
X119.983 Y28.416
X119.963 Y28.365
X119.771 Y27.877
X119.74 Y27.801
X119.329 Y26.836
X119.285 Y26.737
X118.838 Y25.785
X118.795 Y25.698
X118.316 Y24.758
X118.275 Y24.681
X117.767 Y23.752
X117.728 Y23.682
X117.193 Y22.762
X117.157 Y22.702
X116.598 Y21.791
X116.564 Y21.737
X115.983 Y20.834
X115.953 Y20.788
X115.353 Y19.892
X115.328 Y19.856
X114.713 Y18.965
X114.691 Y18.933
X114.062 Y18.047
X114.037 Y18.013
X112.749 Y16.253
X112.731 Y16.229
X111.422 Y14.477
G2 X110.985 Y14.006 I-2.403 J1.795
G1 X109.728 Y12.915
X109.714 Y12.904
X108.452 Y11.822
X108.425 Y11.8
X107.154 Y10.736
X107.111 Y10.701
X105.824 Y9.664
X105.784 Y9.633
X105.134 Y9.127
X105.101 Y9.101
X104.445 Y8.606
X104.408 Y8.578
X103.746 Y8.094
X103.706 Y8.065
X103.038 Y7.593
X102.991 Y7.56
X102.315 Y7.102
X102.264 Y7.068
X101.58 Y6.623
X101.525 Y6.589
X100.833 Y6.16
X100.773 Y6.123
X100.071 Y5.711
X100.006 Y5.674
X99.294 Y5.279
X99.227 Y5.243
X98.505 Y4.867
X98.44 Y4.834
X97.709 Y4.475
X97.648 Y4.446
X96.908 Y4.103
X96.851 Y4.077
X96.103 Y3.749
X96.051 Y3.727
X95.295 Y3.413
X95.247 Y3.393
X94.485 Y3.091
X94.442 Y3.075
X93.673 Y2.784
X93.618 Y2.763
X92.065 Y2.21
X92.008 Y2.19
X90.438 Y1.666
X90.4 Y1.654
X88.819 Y1.15
X88.8 Y1.144
X87.214 Y0.649
G2 X86.824 Y0.556 I-0.893 J2.864
G1 X83.41 Y-0.024
X83.391 Y-0.027
X81.683 Y-0.306
X81.66 Y-0.31
X79.951 Y-0.576
X79.92 Y-0.58
X78.209 Y-0.828
X78.171 Y-0.833
X76.458 Y-1.059
X76.412 Y-1.065
X74.696 Y-1.264
X74.643 Y-1.27
X72.924 Y-1.438
X72.87 Y-1.443
X71.148 Y-1.58
X71.101 Y-1.583
X69.377 Y-1.693
X69.336 Y-1.695
X67.61 Y-1.781
X67.576 Y-1.782
X65.847 Y-1.849
X65.82 Y-1.85
X64.091 Y-1.901
X64.07
X62.339 Y-1.941
X62.322
X58.859 Y-2.
X58.808
X49.094
Z-14.
X37.094
Z-15. F267.
X1.399 F800.
G2 X-1.601 Y1. I0. J3.
G1 Y5.749
G2 X1.38 Y8.749 I3. J0.
G1 X2.668 Y8.757
X3.917 Y8.783
X5.159 Y8.841
X6.391 Y8.921
X8.684 Y9.143
X10.958 Y9.395
X11.397 Y9.462
X11.83 Y9.541
X11.98 Y9.574
X12.121 Y9.611
X12.234 Y9.647
X12.322 Y9.679
X12.392 Y9.71
X12.467 Y9.749
X12.563 Y9.807
X12.667 Y9.875
X12.94 Y10.075
X12.977 Y10.138
X13.249 Y10.646
X13.339 Y10.836
X13.419 Y11.022
X13.483 Y11.198
X13.54 Y11.384
X13.593 Y11.591
X13.642 Y11.819
X13.686 Y12.068
X13.724 Y12.326
X13.796 Y12.945
X13.852 Y13.54
X14.106 Y19.4
Y46.858
Z-14.
Y58.858
Z-15. F267.
Y82.18 F800.
X13.85 Y88.045
X13.793 Y88.629
X13.719 Y89.24
X13.68 Y89.492
X13.636 Y89.735
X13.587 Y89.958
X13.534 Y90.158
X13.477 Y90.336
X13.412 Y90.507
X13.333 Y90.689
X13.241 Y90.875
X12.965 Y91.376
X12.912 Y91.465
X12.599 Y91.7
X12.489 Y91.775
X12.384 Y91.839
X12.3 Y91.885
X12.222 Y91.921
X12.127 Y91.959
X12.033 Y91.99
X11.68 Y92.086
X11.265 Y92.172
X10.838 Y92.249
X9.716 Y92.39
X8.565 Y92.512
X7.413 Y92.594
X6.224 Y92.653
X4.902 Y92.703
X4.876 Y92.704
X3.537 Y92.767
X3.486 Y92.769
X0.81 Y92.939
G2 X-2. Y95.933 I0.19 J2.994
G1 Y100.587
G2 X0.984 Y103.587 I3. J0.
G1 X37.006 Y103.783
Z-14.
X49.006 Y103.848
Z-15. F267.
X51.961 Y103.864 F800.
X52.049 Y103.863
X55.8 Y103.774
X55.819
X57.693 Y103.718
X57.716 Y103.717
X59.589 Y103.647
X59.616 Y103.646
X61.488 Y103.559
X61.525 Y103.557
X63.394 Y103.447
X63.436 Y103.444
X65.302 Y103.308
X65.354 Y103.304
X67.217 Y103.136
X67.273 Y103.13
X69.133 Y102.927
X69.185 Y102.921
X71.041 Y102.686
X71.086 Y102.68
X72.94 Y102.416
X72.977 Y102.41
X74.828 Y102.123
X74.858 Y102.119
X76.707 Y101.813
X76.729 Y101.809
X78.577 Y101.49
X78.596 Y101.486
X82.289 Y100.824
G2 X82.662 Y100.732 I-0.53 J-2.953
G1 X84.508 Y100.15
X84.528 Y100.143
X86.367 Y99.549
X86.407 Y99.535
X88.232 Y98.917
X88.276 Y98.902
X89.181 Y98.579
X89.216 Y98.566
X90.115 Y98.234
X90.156 Y98.218
X91.048 Y97.873
X91.093 Y97.855
X91.977 Y97.496
X92.027 Y97.475
X92.903 Y97.102
X92.958 Y97.077
X93.824 Y96.687
X93.884 Y96.659
X94.739 Y96.25
X94.803 Y96.218
X95.647 Y95.79
X95.716 Y95.753
X96.548 Y95.304
X96.62 Y95.263
X97.438 Y94.791
X97.508 Y94.749
X98.313 Y94.255
X98.377 Y94.215
X99.171 Y93.699
X99.23 Y93.66
X100.012 Y93.126
X100.066 Y93.088
X100.838 Y92.535
X100.887 Y92.5
X101.649 Y91.931
X101.693 Y91.897
X102.447 Y91.313
X102.485 Y91.283
X103.231 Y90.685
X103.265 Y90.657
X104.004 Y90.047
X104.035 Y90.02
X104.767 Y89.399
X104.794 Y89.376
X105.52 Y88.745
X105.549 Y88.718
X106.989 Y87.432
X107.018 Y87.406
X108.445 Y86.098
X108.46 Y86.084
X109.88 Y84.765
G2 X110.258 Y84.339 I-2.042 J-2.198
G1 X111.665 Y82.418
X111.683 Y82.394
X113.067 Y80.465
X113.088 Y80.435
X113.766 Y79.465
X113.787 Y79.435
X114.451 Y78.46
X114.475 Y78.423
X115.122 Y77.442
X115.15 Y77.4
X115.778 Y76.412
X115.808 Y76.364
X116.415 Y75.368
X116.449 Y75.311
X117.031 Y74.306
X117.066 Y74.244
X117.622 Y73.229
X117.661 Y73.155
X118.186 Y72.13
X118.226 Y72.048
X118.718 Y71.011
X118.758 Y70.925
X119.216 Y69.875
X119.248 Y69.798
X119.462 Y69.268
X119.48 Y69.221
X119.685 Y68.687
X119.705 Y68.635
X119.9 Y68.098
X119.919 Y68.045
X120.104 Y67.504
X120.128 Y67.43
X120.47 Y66.338
X120.498 Y66.243
X120.804 Y65.138
X120.827 Y65.052
X121.101 Y63.935
X121.119 Y63.855
X121.363 Y62.727
X121.379 Y62.65
X121.594 Y61.512
X121.606 Y61.443
X121.795 Y60.295
X121.805 Y60.232
X121.97 Y59.076
X121.977 Y59.023
X122.122 Y57.86
X122.128 Y57.807
X122.253 Y56.637
X122.257 Y56.595
X122.366 Y55.419
X122.369 Y55.382
X122.464 Y54.201
X122.466 Y54.173
X122.485 Y53.914
Z-14.
X122.55 Y52.987
X122.553 Y52.951
X122.693 Y50.57
X122.694 Y50.547
X122.816 Y48.159
X122.819 Y48.063
G3 X123.431 Y47.475 I0.6 J0.011
G1 X124.63 Y47.497
G0 Z5.
X124.608 Y48.697
G1 Z-11. F267.
Z-14.
X124.008 Y48.686 F800.
X123.408 Y48.674
G3 X122.819 Y48.063 I0.011 J-0.6
G1 X122.818 Y47.893
X122.735 Y45.694
X122.734 Y45.67
X122.634 Y43.478
X122.632 Y43.444
X122.57 Y42.352
X122.568 Y42.321
X122.54 Y41.904
Z-16. F267.
X122.495 Y41.233 F800.
X122.493 Y41.197
X122.407 Y40.113
X122.403 Y40.071
X122.302 Y38.993
X122.297 Y38.942
X122.178 Y37.87
X122.171 Y37.816
X122.033 Y36.751
X122.024 Y36.688
X121.864 Y35.632
X121.852 Y35.559
X121.667 Y34.512
X121.653 Y34.438
X121.443 Y33.401
X121.425 Y33.316
X121.186 Y32.288
X121.163 Y32.198
X120.893 Y31.181
X120.867 Y31.088
X120.565 Y30.083
X120.533 Y29.982
X120.196 Y28.99
X120.166 Y28.907
X119.983 Y28.416
X119.963 Y28.365
X119.771 Y27.877
X119.74 Y27.801
X119.329 Y26.836
X119.285 Y26.737
X118.838 Y25.785
X118.795 Y25.698
X118.316 Y24.758
X118.275 Y24.681
X117.767 Y23.752
X117.728 Y23.682
X117.193 Y22.762
X117.157 Y22.702
X116.598 Y21.791
X116.564 Y21.737
X115.983 Y20.834
X115.953 Y20.788
X115.353 Y19.892
X115.328 Y19.856
X114.713 Y18.965
X114.691 Y18.933
X114.062 Y18.047
X114.037 Y18.013
X112.749 Y16.253
X112.731 Y16.229
X111.422 Y14.477
G2 X110.985 Y14.006 I-2.403 J1.795
G1 X109.728 Y12.915
X109.714 Y12.904
X108.452 Y11.822
X108.425 Y11.8
X107.154 Y10.736
X107.111 Y10.701
X105.824 Y9.664
X105.784 Y9.633
X105.134 Y9.127
X105.101 Y9.101
X104.445 Y8.606
X104.408 Y8.578
X103.746 Y8.094
X103.706 Y8.065
X103.038 Y7.593
X102.991 Y7.56
X102.315 Y7.102
X102.264 Y7.068
X101.58 Y6.623
X101.525 Y6.589
X100.833 Y6.16
X100.773 Y6.123
X100.071 Y5.711
X100.006 Y5.674
X99.294 Y5.279
X99.227 Y5.243
X98.505 Y4.867
X98.44 Y4.834
X97.709 Y4.475
X97.648 Y4.446
X96.908 Y4.103
X96.851 Y4.077
X96.103 Y3.749
X96.051 Y3.727
X95.295 Y3.413
X95.247 Y3.393
X94.485 Y3.091
X94.442 Y3.075
X93.673 Y2.784
X93.618 Y2.763
X92.065 Y2.21
X92.008 Y2.19
X90.438 Y1.666
X90.4 Y1.654
X88.819 Y1.15
X88.8 Y1.144
X87.214 Y0.649
G2 X86.824 Y0.556 I-0.893 J2.864
G1 X83.41 Y-0.024
X83.391 Y-0.027
X81.683 Y-0.306
X81.66 Y-0.31
X79.951 Y-0.576
X79.92 Y-0.58
X78.209 Y-0.828
X78.171 Y-0.833
X76.458 Y-1.059
X76.412 Y-1.065
X74.696 Y-1.264
X74.643 Y-1.27
X72.924 Y-1.438
X72.87 Y-1.443
X71.148 Y-1.58
X71.101 Y-1.583
X69.377 Y-1.693
X69.336 Y-1.695
X67.61 Y-1.781
X67.576 Y-1.782
X65.847 Y-1.849
X65.82 Y-1.85
X64.091 Y-1.901
X64.07
X62.339 Y-1.941
X62.322
X58.859 Y-2.
X58.808
X49.094
Z-14.
X37.094
Z-16. F267.
X1.399 F800.
G2 X-1.601 Y1. I0. J3.
G1 Y5.749
G2 X1.38 Y8.749 I3. J0.
G1 X2.668 Y8.757
X3.917 Y8.783
X5.159 Y8.841
X6.391 Y8.921
X8.684 Y9.143
X10.958 Y9.395
X11.397 Y9.462
X11.83 Y9.541
X11.98 Y9.574
X12.121 Y9.611
X12.234 Y9.647
X12.322 Y9.679
X12.392 Y9.71
X12.467 Y9.749
X12.563 Y9.807
X12.667 Y9.875
X12.94 Y10.075
X12.977 Y10.138
X13.249 Y10.646
X13.339 Y10.836
X13.419 Y11.022
X13.483 Y11.198
X13.54 Y11.384
X13.593 Y11.591
X13.642 Y11.819
X13.686 Y12.068
X13.724 Y12.326
X13.796 Y12.945
X13.852 Y13.54
X14.106 Y19.4
Y46.858
Z-14.
Y58.858
Z-16. F267.
Y82.18 F800.
X13.85 Y88.045
X13.793 Y88.629
X13.719 Y89.24
X13.68 Y89.492
X13.636 Y89.735
X13.587 Y89.958
X13.534 Y90.158
X13.477 Y90.336
X13.412 Y90.507
X13.333 Y90.689
X13.241 Y90.875
X12.965 Y91.376
X12.912 Y91.465
X12.599 Y91.7
X12.489 Y91.775
X12.384 Y91.839
X12.3 Y91.885
X12.222 Y91.921
X12.127 Y91.959
X12.033 Y91.99
X11.68 Y92.086
X11.265 Y92.172
X10.838 Y92.249
X9.716 Y92.39
X8.565 Y92.512
X7.413 Y92.594
X6.224 Y92.653
X4.902 Y92.703
X4.876 Y92.704
X3.537 Y92.767
X3.486 Y92.769
X0.81 Y92.939
G2 X-2. Y95.933 I0.19 J2.994
G1 Y100.587
G2 X0.984 Y103.587 I3. J0.
G1 X37.006 Y103.783
Z-14.
X49.006 Y103.848
Z-16. F267.
X51.961 Y103.864 F800.
X52.049 Y103.863
X55.8 Y103.774
X55.819
X57.693 Y103.718
X57.716 Y103.717
X59.589 Y103.647
X59.616 Y103.646
X61.488 Y103.559
X61.525 Y103.557
X63.394 Y103.447
X63.436 Y103.444
X65.302 Y103.308
X65.354 Y103.304
X67.217 Y103.136
X67.273 Y103.13
X69.133 Y102.927
X69.185 Y102.921
X71.041 Y102.686
X71.086 Y102.68
X72.94 Y102.416
X72.977 Y102.41
X74.828 Y102.123
X74.858 Y102.119
X76.707 Y101.813
X76.729 Y101.809
X78.577 Y101.49
X78.596 Y101.486
X82.289 Y100.824
G2 X82.662 Y100.732 I-0.53 J-2.953
G1 X84.508 Y100.15
X84.528 Y100.143
X86.367 Y99.549
X86.407 Y99.535
X88.232 Y98.917
X88.276 Y98.902
X89.181 Y98.579
X89.216 Y98.566
X90.115 Y98.234
X90.156 Y98.218
X91.048 Y97.873
X91.093 Y97.855
X91.977 Y97.496
X92.027 Y97.475
X92.903 Y97.102
X92.958 Y97.077
X93.824 Y96.687
X93.884 Y96.659
X94.739 Y96.25
X94.803 Y96.218
X95.647 Y95.79
X95.716 Y95.753
X96.548 Y95.304
X96.62 Y95.263
X97.438 Y94.791
X97.508 Y94.749
X98.313 Y94.255
X98.377 Y94.215
X99.171 Y93.699
X99.23 Y93.66
X100.012 Y93.126
X100.066 Y93.088
X100.838 Y92.535
X100.887 Y92.5
X101.649 Y91.931
X101.693 Y91.897
X102.447 Y91.313
X102.485 Y91.283
X103.231 Y90.685
X103.265 Y90.657
X104.004 Y90.047
X104.035 Y90.02
X104.767 Y89.399
X104.794 Y89.376
X105.52 Y88.745
X105.549 Y88.718
X106.989 Y87.432
X107.018 Y87.406
X108.445 Y86.098
X108.46 Y86.084
X109.88 Y84.765
G2 X110.258 Y84.339 I-2.042 J-2.198
G1 X111.665 Y82.418
X111.683 Y82.394
X113.067 Y80.465
X113.088 Y80.435
X113.766 Y79.465
X113.787 Y79.435
X114.451 Y78.46
X114.475 Y78.423
X115.122 Y77.442
X115.15 Y77.4
X115.778 Y76.412
X115.808 Y76.364
X116.415 Y75.368
X116.449 Y75.311
X117.031 Y74.306
X117.066 Y74.244
X117.622 Y73.229
X117.661 Y73.155
X118.186 Y72.13
X118.226 Y72.048
X118.718 Y71.011
X118.758 Y70.925
X119.216 Y69.875
X119.248 Y69.798
X119.462 Y69.268
X119.48 Y69.221
X119.685 Y68.687
X119.705 Y68.635
X119.9 Y68.098
X119.919 Y68.045
X120.104 Y67.504
X120.128 Y67.43
X120.47 Y66.338
X120.498 Y66.243
X120.804 Y65.138
X120.827 Y65.052
X121.101 Y63.935
X121.119 Y63.855
X121.363 Y62.727
X121.379 Y62.65
X121.594 Y61.512
X121.606 Y61.443
X121.795 Y60.295
X121.805 Y60.232
X121.97 Y59.076
X121.977 Y59.023
X122.122 Y57.86
X122.128 Y57.807
X122.253 Y56.637
X122.257 Y56.595
X122.366 Y55.419
X122.369 Y55.382
X122.464 Y54.201
X122.466 Y54.173
X122.485 Y53.914
Z-14.
X122.55 Y52.987
X122.553 Y52.951
X122.693 Y50.57
X122.694 Y50.547
X122.816 Y48.159
X122.819 Y48.063
G3 X123.431 Y47.475 I0.6 J0.011
G1 X124.63 Y47.497
G0 Z15.

M9
M30
